!!!OTL: Greensleeves
!!!COM: unknown
!!!ODT: 1550 (16th century)
!!!YOR: The Folksong Fake Book
!!!YOY: 2000
!!!AST: Folk song
!!!YEC: Brian Luke, 2001
**kern	**harm
*k[f#]	*k[f#]
*M6/8	*M6/8
*e:	*e:
*>A	*>A
8e	.
=1	=1
4g	i
8a	.
8.b	.
16cc	.
8b	.
=2	=2
4a	V/III
8f#	.
8.d	.
16e	.
8f#	.
=3	=3
4g	i
8e	.
8.e	V7/V
16d#	.
8e	.
=4	=4
4f#	V;
8d#	.
4B	.
*>A'	*>A'
8e	.
=5	=5
4g	i
8a	.
8.b	.
16cc	.
8b	.
=6	=6
4a	V/III
8f#	.
8.d	.
16e	.
8f#	.
=7	=7
8g	i
8f#	.
8e	.
8.d#	V7
16c#	.
8d#	.
=8	=8
4e	i
8e	iv
4e	i;
8r	.
*>B	*>B
=9	=9
4.dd	III
8.dd	.
16cc	.
8b	.
=10	=10
4a	V/III
8f#	.
8.d	.
16e	.
8f#	.
=11	=11
4g	i
8e	.
8.e	V7/V
16d#	.
8e	.
=12	=12
4f#	V;
8d#	.
4B	.
8r	.
*>B'	*>B'
=13	=13
4.dd	III
8.dd	.
16cc	.
8b	.
=14	=14
4a	V/III
8f#	.
8.d	.
16e	.
8f#	.
=15	=15
8g	i
8f#	.
8e	.
8.d#	V7
16c#	.
8d#	.
=16	=16
4.e	i
.	iv
4.e	i;
*-	*-
